static/img/in-field/accordion-line-above-default-dark.svg

<svg width="179" height="57" viewBox="0 0 179 57" fill="none" xmlns="http://www.w3.org/2000/svg">
<g clip-path="url(#clip0_7209_84218)">
<path d="M31.4932 37.375H29.667V23.292H24.6934V21.6699H36.4668V23.292H31.4932V37.375ZM40.6055 37.375H38.8223V25.6016H40.6055V37.375ZM38.6719 22.4111C38.6719 22.0029 38.7721 21.7057 38.9727 21.5195C39.1732 21.3262 39.4238 21.2295 39.7246 21.2295C40.0111 21.2295 40.2581 21.3262 40.4658 21.5195C40.6735 21.7129 40.7773 22.0101 40.7773 22.4111C40.7773 22.8122 40.6735 23.113 40.4658 23.3135C40.2581 23.5068 40.0111 23.6035 39.7246 23.6035C39.4238 23.6035 39.1732 23.5068 38.9727 23.3135C38.7721 23.113 38.6719 22.8122 38.6719 22.4111ZM48.4395 36.1182C48.7546 36.1182 49.0589 36.0967 49.3525 36.0537C49.6462 36.0036 49.8789 35.9535 50.0508 35.9033V37.2676C49.8574 37.3607 49.571 37.4359 49.1914 37.4932C48.819 37.5576 48.4824 37.5898 48.1816 37.5898C45.9043 37.5898 44.7656 36.3903 44.7656 33.9912V26.9873H43.0791V26.1279L44.7656 25.3867L45.5176 22.873H46.5488V25.6016H49.9648V26.9873H46.5488V33.916C46.5488 34.625 46.7171 35.1693 47.0537 35.5488C47.3903 35.9284 47.8522 36.1182 48.4395 36.1182ZM54.4473 37.375H52.6641V20.6602H54.4473V37.375ZM63.4521 37.5898C61.7119 37.5898 60.3369 37.0599 59.3271 36C58.3245 34.9401 57.8232 33.4684 57.8232 31.585C57.8232 29.6872 58.2887 28.1797 59.2197 27.0625C60.1579 25.9453 61.4147 25.3867 62.9902 25.3867C64.4655 25.3867 65.6328 25.8737 66.4922 26.8477C67.3516 27.8145 67.7812 29.0928 67.7812 30.6826V31.8105H59.6709C59.7067 33.1927 60.054 34.2419 60.7129 34.958C61.3789 35.6742 62.3135 36.0322 63.5166 36.0322C64.7842 36.0322 66.0374 35.7673 67.2764 35.2373V36.8271C66.6462 37.0993 66.0482 37.2926 65.4824 37.4072C64.9238 37.529 64.2471 37.5898 63.4521 37.5898ZM62.9688 26.8799C62.0234 26.8799 61.2679 27.1878 60.7021 27.8037C60.1436 28.4196 59.8141 29.2718 59.7139 30.3604H65.8691C65.8691 29.236 65.6185 28.3766 65.1172 27.7822C64.6159 27.1807 63.8997 26.8799 62.9688 26.8799Z" fill="#fff"/>
<path d="M155.95 24.925L153.45 22.425L146.5 29.325L139.55 22.425L137.05 24.925L146.5 34.325L155.95 24.925Z" fill="#fff"/>
</g>
<path d="M0.5 1.375H178.5V-0.625H0.5V1.375Z" fill="#7D808D" mask="url(#path-1-inside-1_7209_84218)"/>
<defs>
<clipPath id="clip0_7209_84218">
<path d="M0.5 0.375H178.5V56.375H0.5V0.375Z" fill="#fff"/>
</clipPath>
</defs>
</svg>

<svg width="179" height="57" fill="none" xmlns="http://www.w3.org/2000/svg"><g clip-path="url(#prefix__clip0_7209_84218)" fill="#fff"><path d="M31.493 37.375h-1.826V23.292h-4.974V21.67h11.774v1.622h-4.974v14.083zm9.113 0h-1.784V25.602h1.783v11.773zm-1.934-14.964c0-.408.1-.705.3-.892.201-.193.452-.29.753-.29.286 0 .533.097.74.29.208.194.312.491.312.892s-.104.702-.311.902a1.05 1.05 0 01-.741.29c-.301 0-.552-.096-.752-.29-.2-.2-.301-.5-.301-.902zm9.768 13.707c.315 0 .619-.021.913-.064.293-.05.526-.1.698-.15v1.364c-.194.093-.48.168-.86.225a5.979 5.979 0 01-1.01.097c-2.277 0-3.415-1.2-3.415-3.599v-7.004h-1.687v-.86l1.687-.74.752-2.514h1.03v2.729h3.417v1.385h-3.416v6.929c0 .709.168 1.253.505 1.633.336.38.798.57 1.386.57zm6.007 1.257h-1.783V20.66h1.783v16.715zm9.005.215c-1.74 0-3.115-.53-4.125-1.59-1.002-1.06-1.504-2.532-1.504-4.415 0-1.898.466-3.405 1.397-4.523.938-1.117 2.195-1.675 3.77-1.675 1.476 0 2.643.487 3.502 1.46.86.967 1.29 2.246 1.29 3.836v1.128H59.67c.036 1.382.383 2.43 1.042 3.147.666.716 1.6 1.074 2.804 1.074 1.267 0 2.52-.265 3.76-.795v1.59a9.113 9.113 0 01-1.795.58c-.558.122-1.235.183-2.03.183zm-.483-10.71c-.946 0-1.701.308-2.267.924-.558.616-.888 1.468-.988 2.556h6.155c0-1.124-.25-1.983-.752-2.578-.501-.601-1.217-.902-2.148-.902zM155.95 24.925l-2.5-2.5-6.95 6.9-6.95-6.9-2.5 2.5 9.45 9.4 9.45-9.4z"/></g><path d="M.5 1.375h178v-2H.5v2z" fill="#7D808D" mask="url(#prefix__path-1-inside-1_7209_84218)"/><defs><clipPath id="prefix__clip0_7209_84218"><path d="M.5.375h178v56H.5v-56z" fill="#fff"/></clipPath></defs></svg>
